X:1
T: Bonaly Burn
C:C Sherrit
R:Reel
Q: 232
K:G
M:4/4
L:1/8
d|:G2G2 GB dB|c2c2 ce ge|f2fg ab c'b|ag fe dc BA|
G2G2 GB dB|c2c2 ce ge|f2fg ac' af|1g2g2 g2d2:|2g2g2 gf ga|
|:b2bg a2af|g2ge fdB2|c2ec B2dB|A2A2 AcBA|
G2G2 GBdB|c2c2 ce ge|f2fg ac' af|1g2g2 g2d2:|2g2g2 g2||
